public/svg/Duo_PencilBoarding.svg

<?xml version="1.0" encoding="UTF-8" standalone="no"?>
<svg
   version="1.1"
   width="225"
   height="183"
   style="clip-rule:evenodd;fill-rule:evenodd;image-rendering:optimizeQuality;shape-rendering:geometricPrecision;text-rendering:geometricPrecision"
   id="svg22"
   xmlns="http://www.w3.org/2000/svg">
  <defs
     id="defs22" />
  <g
     id="g1"
     transform="translate(-37.477005,-66.995949)">
    <path
       style="opacity:0.948"
       fill="#57cc01"
       d="m 72.5,67.5 c 10.7261,-1.0893 16.5594,3.5774 17.5,14 -0.7247,0.5585 -1.5581,0.8918 -2.5,1 -7.2944,-2.2103 -14.6277,-4.2103 -22,-6 0.4705,-4.4683 2.8039,-7.4683 7,-9 z"
       id="path1" />
  </g>
  <g
     id="g2"
     transform="translate(-37.477005,-66.995949)">
    <path
       style="opacity:0.991"
       fill="#59cc02"
       d="m 186.5,67.5 c 8.705,-1.7163 15.539,0.9504 20.5,8 2.05,10.8993 3.717,21.8993 5,33 1.041,5.79 2.874,11.29 5.5,16.5 13.385,2.41 26.718,5.077 40,8 2.75,1.085 4.417,3.085 5,6 -6.123,13.447 -16.456,21.781 -31,25 -6.667,0.333 -13.333,0.667 -20,1 -16.874,23.585 -38.874,29.918 -66,19 -14.483,-8.435 -23.483,-20.935 -27,-37.5 -24.5669,-5.722 -37.7336,-21.055 -39.5,-46 0.5752,-3.2973 2.5752,-4.964 6,-5 8.282,1.9453 16.449,4.2787 24.5,7 -0.483,-6.9606 0.017,-13.9606 1.5,-21 4.631,-7.0647 11.131,-9.898 19.5,-8.5 7.982,2.8705 16.149,5.0372 24.5,6.5 11.364,-1.9513 21.864,-5.9513 31.5,-12 z"
       id="path2" />
  </g>
  <g
     id="g3"
     transform="translate(-37.477005,-66.995949)">
    <path
       style="opacity:0.954"
       fill="#57cc01"
       d="m 38.5,70.5 c 4.8856,2.7058 9.3856,6.0391 13.5,10 0.1235,3.1451 -1.5432,4.4784 -5,4 -8.4295,-1.2637 -11.2628,-5.9304 -8.5,-14 z"
       id="path3" />
  </g>
  <g
     id="g4"
     transform="translate(-37.477005,-66.995949)">
    <path
       style="opacity:1"
       fill="#8ae119"
       d="m 166.5,133.5 c 0.874,-2.731 -0.126,-4.898 -3,-6.5 -8.014,-3.326 -13.014,-0.826 -15,7.5 1.459,-0.067 2.792,0.266 4,1 0,1.333 0,2.667 0,4 -8.087,8.647 -17.42,10.147 -28,4.5 -5.909,-5.106 -8.742,-11.606 -8.5,-19.5 -1.757,-7.506 -0.257,-14.172 4.5,-20 0.821,-2.947 1.321,-5.9465 1.5,-9 2.848,-0.7567 5.181,0.2433 7,3 0.333,-2.6667 0.667,-5.3333 1,-8 0.414,-0.4574 0.914,-0.7907 1.5,-1 5.855,5.023 11.855,9.8564 18,14.5 4.951,2.174 9.618,1.674 14,-1.5 4.788,-6.077 9.455,-12.2436 14,-18.5 0.949,-0.6172 1.782,-0.4506 2.5,0.5 1,2 2,4 3,6 1.34,-1.3678 2.674,-2.7011 4,-4 2.645,1.935 4.311,4.6016 5,8 8.02,6.552 11.52,15.052 10.5,25.5 -0.299,13.301 -7.132,20.467 -20.5,21.5 -6.21,-0.688 -11.377,-3.355 -15.5,-8 z"
       id="path4" />
  </g>
  <g
     id="g5"
     transform="translate(-37.477005,-66.995949)">
    <path
       style="opacity:1"
       fill="#fafcf8"
       d="m 189.5,126.5 c 0.367,-4.467 -0.133,-8.8 -1.5,-13 -2.555,-2.15 -5.388,-2.483 -8.5,-1 0.985,1.598 1.151,3.265 0.5,5 -4.191,3.674 -4.358,7.674 -0.5,12 -3.224,2.981 -6.058,2.647 -8.5,-1 -4.255,-8.489 -4.255,-16.822 0,-25 7.241,-5.4719 14.241,-5.1386 21,1 3.066,6.644 4.232,13.644 3.5,21 -2.121,-0.175 -4.121,0.159 -6,1 z"
       id="path5" />
  </g>
  <g
     id="g6"
     transform="translate(-37.477005,-66.995949)">
    <path
       style="opacity:1"
       fill="#fcfdfa"
       d="m 145.5,134.5 c 1.04,-4.28 1.206,-8.613 0.5,-13 -1.994,-4.25 -5.161,-5.583 -9.5,-4 1.853,3.6 1.02,6.266 -2.5,8 -0.334,2.347 -0.167,4.681 0.5,7 -4.055,0.324 -8.055,-0.009 -12,-1 -1.792,-5.546 -2.292,-11.212 -1.5,-17 4.537,-9.177 11.371,-11.344 20.5,-6.5 5.183,5.007 7.516,11.173 7,18.5 0.152,3.226 -0.848,5.893 -3,8 z"
       id="path6" />
  </g>
  <g
     id="g7"
     transform="translate(-37.477005,-66.995949)">
    <path
       style="opacity:0.898"
       fill="#57cc01"
       d="m 56.5,111.5 c 2.8903,-0.222 5.557,0.445 8,2 1.0827,0.865 1.2494,1.865 0.5,3 -4.3838,3.124 -9.0504,4.791 -14,5 -0.523,-4.62 1.3103,-7.953 5.5,-10 z"
       id="path7" />
  </g>
  <g
     id="g8"
     transform="translate(-37.477005,-66.995949)">
    <path
       style="opacity:1"
       fill="#50504f"
       d="m 189.5,126.5 c -3.468,0.601 -6.801,1.601 -10,3 -3.858,-4.326 -3.691,-8.326 0.5,-12 0.651,-1.735 0.485,-3.402 -0.5,-5 3.112,-1.483 5.945,-1.15 8.5,1 1.367,4.2 1.867,8.533 1.5,13 z"
       id="path8" />
  </g>
  <g
     id="g9"
     transform="translate(-37.477005,-66.995949)">
    <path
       style="opacity:1"
       fill="#515150"
       d="m 145.5,134.5 c -3.601,-0.849 -7.268,-1.516 -11,-2 -0.667,-2.319 -0.834,-4.653 -0.5,-7 3.52,-1.734 4.353,-4.4 2.5,-8 4.339,-1.583 7.506,-0.25 9.5,4 0.706,4.387 0.54,8.72 -0.5,13 z"
       id="path9" />
  </g>
  <g
     id="g10"
     transform="translate(-37.477005,-66.995949)">
    <path
       style="opacity:1"
       fill="#fac200"
       d="m 166.5,133.5 c 0,1.333 0,2.667 0,4 -0.667,-1.333 -1.333,-2.667 -2,-4 -3.943,0.986 -7.943,1.652 -12,2 -1.208,-0.734 -2.541,-1.067 -4,-1 1.986,-8.326 6.986,-10.826 15,-7.5 2.874,1.602 3.874,3.769 3,6.5 z"
       id="path10" />
  </g>
  <g
     id="g11"
     transform="translate(-37.477005,-66.995949)">
    <path
       style="opacity:1"
       fill="#dc7004"
       d="m 164.5,133.5 c 0,2 0,4 0,6 -3.333,1.333 -5.667,3.667 -7,7 -1.694,-1.027 -3.027,-2.361 -4,-4 -0.904,-0.709 -1.237,-1.709 -1,-3 0,-1.333 0,-2.667 0,-4 4.057,-0.348 8.057,-1.014 12,-2 z"
       id="path11" />
  </g>
  <g
     id="g12"
     transform="translate(-37.477005,-66.995949)">
    <path
       style="opacity:1"
       fill="#e99507"
       d="m 164.5,133.5 c 0.667,1.333 1.333,2.667 2,4 0.968,2.945 1.134,5.945 0.5,9 -3.829,6.203 -8.162,6.536 -13,1 -0.494,-1.634 -0.66,-3.301 -0.5,-5 0.973,1.639 2.306,2.973 4,4 5.333,0.667 7.667,-1.667 7,-7 0,-2 0,-4 0,-6 z"
       id="path12" />
  </g>
  <g
     id="g13"
     transform="translate(-37.477005,-66.995949)">
    <path
       style="opacity:1"
       fill="#fdc3ec"
       d="m 164.5,139.5 c 0.667,5.333 -1.667,7.667 -7,7 1.333,-3.333 3.667,-5.667 7,-7 z"
       id="path13" />
  </g>
  <g
     id="g14"
     transform="translate(-37.477005,-66.995949)">
    <path
       style="opacity:0.792"
       fill="#606060"
       d="m 45.5,143.5 c 10.9257,-0.96 18.759,3.374 23.5,13 0.7371,16.703 8.5705,28.536 23.5,35.5 1.5,2.167 1,3.667 -1.5,4.5 -10.4962,-3.162 -17.8295,-9.828 -22,-20 -2.1373,-6.216 -3.8039,-12.549 -5,-19 -3.0045,-5.92 -7.8379,-8.92 -14.5,-9 -3.3167,0.553 -6.65,0.886 -10,1 -0.262,-1.478 0.0713,-2.811 1,-4 1.8361,-0.528 3.5028,-1.194 5,-2 z"
       id="path14" />
  </g>
  <g
     id="g15"
     transform="translate(-37.477005,-66.995949)">
    <path
       style="opacity:0.99"
       fill="#f48f00"
       d="m 108.5,163.5 c 2.489,-0.202 4.823,0.298 7,1.5 2.167,2.833 4.333,5.667 6.5,8.5 3.224,6.33 1.391,10.33 -5.5,12 -1.295,-0.598 -2.628,-1.098 -4,-1.5 -2.167,-2.833 -4.333,-5.667 -6.5,-8.5 -2.617,-4.922 -1.783,-8.922 2.5,-12 z"
       id="path15" />
  </g>
  <g
     id="g16"
     transform="translate(-37.477005,-66.995949)">
    <path
       style="opacity:0.97"
       fill="#fed202"
       d="m 118.5,194.5 c 1.788,-1.122 3.788,-1.289 6,-0.5 15.246,5.471 30.58,10.638 46,15.5 0,0.667 0.333,1 1,1 5.944,3.203 12.277,5.203 19,6 1.714,1.238 3.714,1.905 6,2 -2.864,7.926 -5.531,15.926 -8,24 -25.337,-8.442 -50.337,-17.442 -75,-27 0.997,0.03 1.664,-0.47 2,-1.5 2.316,-6.445 4.316,-12.945 6,-19.5 -1,0 -2,0 -3,0 z"
       id="path16" />
  </g>
  <g
     id="g17"
     transform="translate(-37.477005,-66.995949)">
    <path
       style="opacity:1"
       fill="#fbd4a8"
       d="m 118.5,194.5 c 1,0 2,0 3,0 -1.684,6.555 -3.684,13.055 -6,19.5 -0.336,1.03 -1.003,1.53 -2,1.5 -4.689,-3.722 -8.689,-8.055 -12,-13 4.338,-3.946 3.672,-5.612 -2,-5 6.074,-1.822 12.407,-2.822 19,-3 z"
       id="path17" />
  </g>
  <g
     id="g18"
     transform="translate(-37.477005,-66.995949)">
    <path
       style="opacity:1"
       fill="#6b675a"
       d="m 99.5,197.5 c 5.672,-0.612 6.338,1.054 2,5 -2.6917,-1.091 -3.3584,-2.757 -2,-5 z"
       id="path18" />
  </g>
  <g
     id="g19"
     transform="translate(-37.477005,-66.995949)">
    <path
       style="opacity:0.975"
       fill="#f49000"
       d="m 190.5,216.5 c -6.723,-0.797 -13.056,-2.797 -19,-6 -0.667,0 -1,-0.333 -1,-1 0.185,-6.693 3.519,-9.526 10,-8.5 4.701,1.227 8.868,3.394 12.5,6.5 1.07,3.642 0.236,6.642 -2.5,9 z"
       id="path19" />
  </g>
  <g
     id="g20"
     transform="translate(-37.477005,-66.995949)">
    <path
       style="opacity:1"
       fill="#ffc100"
       d="m 129.5,208.5 c 1.699,-0.16 3.366,0.006 5,0.5 16.257,5.808 32.591,11.308 49,16.5 0,1 0,2 0,3 -17.787,-5.318 -35.454,-11.151 -53,-17.5 -0.752,-0.671 -1.086,-1.504 -1,-2.5 z"
       id="path20" />
  </g>
  <g
     id="g21"
     transform="translate(-37.477005,-66.995949)">
    <path
       style="opacity:1"
       fill="#f4a29c"
       d="m 210.5,224.5 c 4.62,0.594 8.787,2.261 12.5,5 0.402,1.372 0.902,2.705 1.5,4 -1.664,5.837 -3.997,11.337 -7,16.5 -5.301,0.88 -10.301,0.046 -15,-2.5 2.665,-7.662 5.332,-15.328 8,-23 z"
       id="path21" />
  </g>
  <g
     id="g22"
     transform="translate(-37.477005,-66.995949)">
    <path
       style="opacity:0.973"
       fill="#c7c6c4"
       d="m 196.5,218.5 c 3.918,1.149 7.918,2.316 12,3.5 1.256,0.417 1.923,1.25 2,2.5 -2.668,7.672 -5.335,15.338 -8,23 -5.379,-0.162 -10.046,-1.829 -14,-5 2.469,-8.074 5.136,-16.074 8,-24 z"
       id="path22" />
  </g>
</svg>

<?xml version="1.0" encoding="UTF-8"?>
<!DOCTYPE svg PUBLIC "-//W3C//DTD SVG 1.1//EN" "http://www.w3.org/Graphics/SVG/1.1/DTD/svg11.dtd">
<svg xmlns="http://www.w3.org/2000/svg" version="1.1" width="300px" height="300px" style="shape-rendering:geometricPrecision; text-rendering:geometricPrecision; image-rendering:optimizeQuality; fill-rule:evenodd; clip-rule:evenodd" xmlns:xlink="http://www.w3.org/1999/xlink">
<g><path style="opacity:0.948" fill="#57cc01" d="M 72.5,67.5 C 83.2261,66.4107 89.0594,71.0774 90,81.5C 89.2753,82.0585 88.4419,82.3918 87.5,82.5C 80.2056,80.2897 72.8723,78.2897 65.5,76.5C 65.9705,72.0317 68.3039,69.0317 72.5,67.5 Z"/></g>
<g><path style="opacity:0.991" fill="#59cc02" d="M 186.5,67.5 C 195.205,65.7837 202.039,68.4504 207,75.5C 209.05,86.3993 210.717,97.3993 212,108.5C 213.041,114.29 214.874,119.79 217.5,125C 230.885,127.41 244.218,130.077 257.5,133C 260.25,134.085 261.917,136.085 262.5,139C 256.377,152.447 246.044,160.781 231.5,164C 224.833,164.333 218.167,164.667 211.5,165C 194.626,188.585 172.626,194.918 145.5,184C 131.017,175.565 122.017,163.065 118.5,146.5C 93.9331,140.778 80.7664,125.445 79,100.5C 79.5752,97.2027 81.5752,95.536 85,95.5C 93.282,97.4453 101.449,99.7787 109.5,102.5C 109.017,95.5394 109.517,88.5394 111,81.5C 115.631,74.4353 122.131,71.602 130.5,73C 138.482,75.8705 146.649,78.0372 155,79.5C 166.364,77.5487 176.864,73.5487 186.5,67.5 Z"/></g>
<g><path style="opacity:0.954" fill="#57cc01" d="M 38.5,70.5 C 43.3856,73.2058 47.8856,76.5391 52,80.5C 52.1235,83.6451 50.4568,84.9784 47,84.5C 38.5705,83.2363 35.7372,78.5696 38.5,70.5 Z"/></g>
<g><path style="opacity:1" fill="#8ae119" d="M 166.5,133.5 C 167.374,130.769 166.374,128.602 163.5,127C 155.486,123.674 150.486,126.174 148.5,134.5C 149.959,134.433 151.292,134.766 152.5,135.5C 152.5,136.833 152.5,138.167 152.5,139.5C 144.413,148.147 135.08,149.647 124.5,144C 118.591,138.894 115.758,132.394 116,124.5C 114.243,116.994 115.743,110.328 120.5,104.5C 121.321,101.553 121.821,98.5535 122,95.5C 124.848,94.7433 127.181,95.7433 129,98.5C 129.333,95.8333 129.667,93.1667 130,90.5C 130.414,90.0426 130.914,89.7093 131.5,89.5C 137.355,94.523 143.355,99.3564 149.5,104C 154.451,106.174 159.118,105.674 163.5,102.5C 168.288,96.423 172.955,90.2564 177.5,84C 178.449,83.3828 179.282,83.5494 180,84.5C 181,86.5 182,88.5 183,90.5C 184.34,89.1322 185.674,87.7989 187,86.5C 189.645,88.435 191.311,91.1016 192,94.5C 200.02,101.052 203.52,109.552 202.5,120C 202.201,133.301 195.368,140.467 182,141.5C 175.79,140.812 170.623,138.145 166.5,133.5 Z"/></g>
<g><path style="opacity:1" fill="#fafcf8" d="M 189.5,126.5 C 189.867,122.033 189.367,117.7 188,113.5C 185.445,111.35 182.612,111.017 179.5,112.5C 180.485,114.098 180.651,115.765 180,117.5C 175.809,121.174 175.642,125.174 179.5,129.5C 176.276,132.481 173.442,132.147 171,128.5C 166.745,120.011 166.745,111.678 171,103.5C 178.241,98.0281 185.241,98.3614 192,104.5C 195.066,111.144 196.232,118.144 195.5,125.5C 193.379,125.325 191.379,125.659 189.5,126.5 Z"/></g>
<g><path style="opacity:1" fill="#fcfdfa" d="M 145.5,134.5 C 146.54,130.22 146.706,125.887 146,121.5C 144.006,117.25 140.839,115.917 136.5,117.5C 138.353,121.1 137.52,123.766 134,125.5C 133.666,127.847 133.833,130.181 134.5,132.5C 130.445,132.824 126.445,132.491 122.5,131.5C 120.708,125.954 120.208,120.288 121,114.5C 125.537,105.323 132.371,103.156 141.5,108C 146.683,113.007 149.016,119.173 148.5,126.5C 148.652,129.726 147.652,132.393 145.5,134.5 Z"/></g>
<g><path style="opacity:0.898" fill="#57cc01" d="M 56.5,111.5 C 59.3903,111.278 62.057,111.945 64.5,113.5C 65.5827,114.365 65.7494,115.365 65,116.5C 60.6162,119.624 55.9496,121.291 51,121.5C 50.477,116.88 52.3103,113.547 56.5,111.5 Z"/></g>
<g><path style="opacity:1" fill="#50504f" d="M 189.5,126.5 C 186.032,127.101 182.699,128.101 179.5,129.5C 175.642,125.174 175.809,121.174 180,117.5C 180.651,115.765 180.485,114.098 179.5,112.5C 182.612,111.017 185.445,111.35 188,113.5C 189.367,117.7 189.867,122.033 189.5,126.5 Z"/></g>
<g><path style="opacity:1" fill="#515150" d="M 145.5,134.5 C 141.899,133.651 138.232,132.984 134.5,132.5C 133.833,130.181 133.666,127.847 134,125.5C 137.52,123.766 138.353,121.1 136.5,117.5C 140.839,115.917 144.006,117.25 146,121.5C 146.706,125.887 146.54,130.22 145.5,134.5 Z"/></g>
<g><path style="opacity:1" fill="#fac200" d="M 166.5,133.5 C 166.5,134.833 166.5,136.167 166.5,137.5C 165.833,136.167 165.167,134.833 164.5,133.5C 160.557,134.486 156.557,135.152 152.5,135.5C 151.292,134.766 149.959,134.433 148.5,134.5C 150.486,126.174 155.486,123.674 163.5,127C 166.374,128.602 167.374,130.769 166.5,133.5 Z"/></g>
<g><path style="opacity:1" fill="#dc7004" d="M 164.5,133.5 C 164.5,135.5 164.5,137.5 164.5,139.5C 161.167,140.833 158.833,143.167 157.5,146.5C 155.806,145.473 154.473,144.139 153.5,142.5C 152.596,141.791 152.263,140.791 152.5,139.5C 152.5,138.167 152.5,136.833 152.5,135.5C 156.557,135.152 160.557,134.486 164.5,133.5 Z"/></g>
<g><path style="opacity:1" fill="#e99507" d="M 164.5,133.5 C 165.167,134.833 165.833,136.167 166.5,137.5C 167.468,140.445 167.634,143.445 167,146.5C 163.171,152.703 158.838,153.036 154,147.5C 153.506,145.866 153.34,144.199 153.5,142.5C 154.473,144.139 155.806,145.473 157.5,146.5C 162.833,147.167 165.167,144.833 164.5,139.5C 164.5,137.5 164.5,135.5 164.5,133.5 Z"/></g>
<g><path style="opacity:1" fill="#fdc3ec" d="M 164.5,139.5 C 165.167,144.833 162.833,147.167 157.5,146.5C 158.833,143.167 161.167,140.833 164.5,139.5 Z"/></g>
<g><path style="opacity:0.792" fill="#606060" d="M 45.5,143.5 C 56.4257,142.54 64.259,146.874 69,156.5C 69.7371,173.203 77.5705,185.036 92.5,192C 94,194.167 93.5,195.667 91,196.5C 80.5038,193.338 73.1705,186.672 69,176.5C 66.8627,170.284 65.1961,163.951 64,157.5C 60.9955,151.58 56.1621,148.58 49.5,148.5C 46.1833,149.053 42.85,149.386 39.5,149.5C 39.238,148.022 39.5713,146.689 40.5,145.5C 42.3361,144.972 44.0028,144.306 45.5,143.5 Z"/></g>
<g><path style="opacity:0.99" fill="#f48f00" d="M 108.5,163.5 C 110.989,163.298 113.323,163.798 115.5,165C 117.667,167.833 119.833,170.667 122,173.5C 125.224,179.83 123.391,183.83 116.5,185.5C 115.205,184.902 113.872,184.402 112.5,184C 110.333,181.167 108.167,178.333 106,175.5C 103.383,170.578 104.217,166.578 108.5,163.5 Z"/></g>
<g><path style="opacity:0.97" fill="#fed202" d="M 118.5,194.5 C 120.288,193.378 122.288,193.211 124.5,194C 139.746,199.471 155.08,204.638 170.5,209.5C 170.5,210.167 170.833,210.5 171.5,210.5C 177.444,213.703 183.777,215.703 190.5,216.5C 192.214,217.738 194.214,218.405 196.5,218.5C 193.636,226.426 190.969,234.426 188.5,242.5C 163.163,234.058 138.163,225.058 113.5,215.5C 114.497,215.53 115.164,215.03 115.5,214C 117.816,207.555 119.816,201.055 121.5,194.5C 120.5,194.5 119.5,194.5 118.5,194.5 Z"/></g>
<g><path style="opacity:1" fill="#fbd4a8" d="M 118.5,194.5 C 119.5,194.5 120.5,194.5 121.5,194.5C 119.816,201.055 117.816,207.555 115.5,214C 115.164,215.03 114.497,215.53 113.5,215.5C 108.811,211.778 104.811,207.445 101.5,202.5C 105.838,198.554 105.172,196.888 99.5,197.5C 105.574,195.678 111.907,194.678 118.5,194.5 Z"/></g>
<g><path style="opacity:1" fill="#6b675a" d="M 99.5,197.5 C 105.172,196.888 105.838,198.554 101.5,202.5C 98.8083,201.409 98.1416,199.743 99.5,197.5 Z"/></g>
<g><path style="opacity:0.975" fill="#f49000" d="M 190.5,216.5 C 183.777,215.703 177.444,213.703 171.5,210.5C 170.833,210.5 170.5,210.167 170.5,209.5C 170.685,202.807 174.019,199.974 180.5,201C 185.201,202.227 189.368,204.394 193,207.5C 194.07,211.142 193.236,214.142 190.5,216.5 Z"/></g>
<g><path style="opacity:1" fill="#ffc100" d="M 129.5,208.5 C 131.199,208.34 132.866,208.506 134.5,209C 150.757,214.808 167.091,220.308 183.5,225.5C 183.5,226.5 183.5,227.5 183.5,228.5C 165.713,223.182 148.046,217.349 130.5,211C 129.748,210.329 129.414,209.496 129.5,208.5 Z"/></g>
<g><path style="opacity:1" fill="#f4a29c" d="M 210.5,224.5 C 215.12,225.094 219.287,226.761 223,229.5C 223.402,230.872 223.902,232.205 224.5,233.5C 222.836,239.337 220.503,244.837 217.5,250C 212.199,250.88 207.199,250.046 202.5,247.5C 205.165,239.838 207.832,232.172 210.5,224.5 Z"/></g>
<g><path style="opacity:0.973" fill="#c7c6c4" d="M 196.5,218.5 C 200.418,219.649 204.418,220.816 208.5,222C 209.756,222.417 210.423,223.25 210.5,224.5C 207.832,232.172 205.165,239.838 202.5,247.5C 197.121,247.338 192.454,245.671 188.5,242.5C 190.969,234.426 193.636,226.426 196.5,218.5 Z"/></g>
</svg>
